X: 10865
T: Drive Hawkie Through The Water
R: reel
M: 4/4
K: Gmajor
|:G3B A2A>B|G2G>B A>F (3DEF|G2G>B A>BG>A|1 B<ee>g e>dB>A:|2 B<ee>d e3g||
|:e>dB>A G>AB>e|d<BB>A G<EE2|e>dB>G A>BG>A|1 B<ee>d e2g>f:|2 B<ee>g e>dB>A||


